X:109
T:Quadrille
S:John Moore's Book 2
Z:Transcribed by Steve Mansfield 05/2021
%%VWML: Moore2-4494-p84-0
F:http://www.vwml.org/record/Moore2/4494/p84
M:6/8
L:1/8
K:C
G |: c3 cGe | c3 cGe | cGe cGe | c3 a2g | 
gff fff | fee eee | edd dgB | c3-c3 :|
|: d3 d^ce | d3 d^ce | d^ce dce | d3- d2g | 
g^ff fee | edd dcc | cBB Ad^F | G3- G3 :| 

